!!!COM:	la Rue, Pierre de
!!!CDT:	~1452///-1518/11/20
!!!OPR:	Missa Puer natus est nobis
!!!ONM:	2
!!!OTL:	Gloria
!!!AGN:	Mass; Gloria
!!!SCT:	Rue1025b
!!!SCA:	Rue1025b
!!!voices-OPR:	4
!!!voices:	4
**kern	**kern	**kern	**kern
*Ivox	*Ivox	*Ivox	*Ivox
*I"Bassus	*I"Tenor	*I"Contra	*I"Discantus
*I'B	*I'T	*I'C	*I'D
*staff4	*staff3	*staff2	*staff1
*>[A,B]	*>[A,B]	*>[A,B]	*>[A,B]
*>A	*>A	*>A	*>A
*clefF4	*clefGv2	*clefGv2	*clefG2
*k[b-]	*k[b-]	*k[b-]	*k[b-]
*M3/1	*M3/1	*M3/1	*M3/1
*met(O)	*met(O)	*met(O)	*met(O)
!!section: Et in terra pax
!!!OMD: Et in terra pax
=1-	=1-	=1-	=1-
0G	0.r	0G	0g
1B-	.	1G	1dd
=2	=2	=2	=2
1.B-	0.r	0d	2dd\
.	.	.	1dd
4A\	.	.	4cc\
4G\	.	.	4b-\
2F\	.	1d	2a/
2G\	.	.	2b-\
=3	=3	=3	=3
0C	0.r	0e-i	2cc\
.	.	.	1cc
.	.	.	2cc\
2.D\	.	1d	2b-\
.	.	.	[2a/
4E\	.	.	.
=4	=4	=4	=4
4F\	0.r	1c	4a/]
4G\	.	.	8g/L
.	.	.	8f/J
2A\	.	.	2e/
0D	.	2r	1d
.	.	1f	.
.	.	.	1r
.	.	2f\	.
=5	=5	=5	=5
1r	0.r	2e\	2r
.	.	2.d\	1dd
1r	.	.	.
.	.	8c\L	.
.	.	8B-\J	.
.	.	2A/	2cc\
4G\	.	1G	2.b-\
4A\	.	.	.
4B-\	.	.	.
4c\	.	.	4g/
=6	=6	=6	=6
2A\	0.r	1r	2a/
2G\	.	.	2b-\
1C	.	4c\	2g/
.	.	4d\	.
.	.	4e\	2cc\
.	.	4f\	.
2G\	.	2d\	2b-\
2C/	.	2c\	2cc\
=7	=7	=7	=7
4D\	0.r	2.f\	4f/
4E\	.	.	4g/
4F\	.	.	4a/
4G\	.	4e\	4b-\
2E\	.	2c\	2g/
1D	.	2d\	1f
.	.	4B-\	.
.	.	4c\	.
2BB-/	.	4d\	2b-\
.	.	4e-i\	.
=8	=8	=8	=8
2F\	0.r	2c\	4a/
.	.	.	4g/
1G	.	2B-\	2.b-\
.	.	4G/	.
.	.	4A/	4a/
2C/	.	4B-\	1g
.	.	4c\	.
1D	.	1A	.
.	.	.	2f#i/
=9	=9	=9	=9
1G	0G	1G	1g
1r	.	2r	1r
.	.	2g\	.
2r	1G	2g\	1r
2G\	.	2g\	.
=10	=10	=10	=10
2G\	[0.d	1d	2r
2G\	.	.	2dd\
1.D	.	2r	2dd\
.	.	1f	2dd\
.	.	.	[1a
2D\	.	2f\	.
=11	=11	=11	=11
2D\	0d]	2f\	1a]
2D\	.	2f\	.
2D\	.	1f	2r
1F	.	.	2a/
.	1d	1F	2a/
4E\	.	.	2a/
4D\	.	.	.
=12	=12	=12	=12
0C	0e	2.c\	2a/
.	.	.	1cc
.	.	4c\	.
.	.	2c\	.
.	.	2c\	4b-\
.	.	.	4a/
2r	2e\	[1c	2g/
2F\	2f\	.	2a/
=13	=13	=13	=13
2C/	2e\	1c]	2g/
2.F\	2.f\	.	2.a/
.	.	1r	.
4G\	4e\	.	4g/
2A\	4d\	.	1cc
.	4c\	.	.
1G	1d	1g	.
.	.	.	2bni\
=14	=14	=14	=14
4C/	0.c	4e\	1cc
4D\	.	4f\	.
4E\	.	4g\	.
4C/	.	4e\	.
2F\	.	2a\	1r
2G\	.	1g	.
1A	.	.	1cc
.	.	2f\	.
=15	=15	=15	=15
2G\	0.r	2g\	2b-\
2F\	.	2.d\	1a
1G	.	.	.
.	.	4c\	.
.	.	2B-\	1g
1D	.	1A	.
.	.	.	2f#i/
=16	=16	=16	=16
1r	[0.d	0G	1g
1r	.	.	2r
.	.	.	2g/
2r	.	1r	2g/
2G\	.	.	2g/
=17	=17	=17	=17
2G\	0.d]	2r	2g/
2G\	.	2g\	1b-
2G\	.	2g\	.
2G\	.	2g\	4a/
.	.	.	4g/
1B-	.	2d\	2f/
.	.	2d\	2f/
=18	=18	=18	=18
1F	[0.c	2f\	1a
.	.	2f\	.
1A	.	0e	2r
.	.	.	2a/
2r	.	.	2a/
2A\	.	.	2a/
=19	=19	=19	=19
2A\	0c]	2r	2a/
2A\	.	1e	1cc
2A\	.	.	.
2A\	.	2e\	4b-\
.	.	.	4a/
2.c\	1e	2e\	2.g/
.	.	[2g\	.
4B-\	.	.	4a/
=20	=20	=20	=20
4G\	0d	2g\]	4b-\
4A\	.	.	4cc\
2.B-\	.	2f\	2.dd\
.	.	2B-\	.
4A\	.	.	4cc\
2G\	.	2B-\	1b-
1F	1r	1c	.
.	.	.	2a/
=21	=21	=21	=21
0.r	0G	2B-\	0b-
.	.	2d\	.
.	.	2e\	.
.	.	2.g\	.
.	1G	.	1r
.	.	4f\	.
.	.	2e\	.
=22	=22	=22	=22
1G	0d	2d\	1b-
.	.	1g	.
2G\	.	.	2b-\
2G\	.	1.g	1b-
1G	1d	.	.
.	.	.	2b-\
=23	=23	=23	=23
2D\	0d	2a\	2a/
1BB-	.	2.b-\	1dd
.	.	4a\	.
2C/	.	1g	2cc\
1D	1d	.	2a/
.	.	2f\	2b-\
=24	=24	=24	=24
2C/	0e-i	0g	1.cc
2.E-i\	.	.	.
4D\	.	.	.
1C	.	.	4dd\
.	.	.	4ee\
.	1d	2.f\	1ff
2BBni/	.	.	.
.	.	4g\	.
=25	=25	=25	=25
1C	1.c	2a\	2ee\
.	.	1g	1ee
2r	.	.	.
1c	4B-\	2g\	4dd\
.	4A/	.	4cc\
.	1G	1g	1dd
2B-\	.	.	.
=26	=26	=26	=26
2c\	0A	2e\	2cc\
1F	.	1a	1a
4E\	.	4g\	1dd
4D\	.	4f\	.
1A	1r	1e	.
.	.	.	2cc#i\
=27	=27	=27	=27
2D\	0.r	1d	0dd
2G\	.	.	.
2G\	.	2r	.
2F\	.	2d\	.
2G\	.	2d\	2r
2A\	.	2c\	2a/
=28	=28	=28	=28
2.D\	0.r	2d\	2a/
.	.	2B-\	2g/
4E\	.	.	.
4F\	.	2.A/	2a/
4G\	.	.	.
2.A\	.	.	2f/
.	.	4B-\	.
.	.	4c\	2.e/
4B-\	.	4d\	.
[2c\	.	[2e\	.
.	.	.	4f/
=29	=29	=29	=29
2c\]	0.r	4e\]	4g/
.	.	4A/	4a/
2C/	.	2.e\	1g
2E\	.	.	.
.	.	4d\	.
2F\	.	1c	4f/
.	.	.	4e/
1G	.	.	1d
.	.	2Bni\	.
=30	=30	=30	=30
1C	[0.c	1c	2.e/
.	.	.	4c/
2r	.	1r	1c
2F\	.	.	.
2F\	.	1r	1r
2E\	.	.	.
=31	=31	=31	=31
1F	0c]	0.r	1r
2C/	.	.	2r
1F	.	.	2cc\
.	1d	.	2cc\
2G\	.	.	2b-\
=32	=32	=32	=32
2.A\	0c	0e	1cc
4B-\	.	.	.
1c	.	.	2g/
.	.	.	1cc
1F	1c	1f	.
.	.	.	2dd\
=33	=33	=33	=33
1E	2G/	1g	2ee\
.	1c	.	2ee\
0D	.	1a	2ff\
.	4B-\	.	1ff
.	4A/	.	.
.	1B-	1d	.
.	.	.	4ee\
.	.	.	4dd\
=34	=34	=34	=34
2C/	2c\	2g\	2ee\
2G\	2B-\	1g	2.dd\
1A	1c	.	.
.	.	.	4cc\
.	.	2f\	1cc
1G	1d	1g	.
.	.	.	2bni\
=35	=35	=35	=35
1C	[0.c	2.e\	0.cc
.	.	4f\	.
2r	.	2g\	.
2.F\	.	1a	.
4E\	.	.	.
2E\	.	2g\	.
=36	=36	=36	=36
2F\	0.c]	2a\	1r
2C/	.	2e\	.
2F\	.	2a\	1r
2G\	.	1g	.
1A	.	.	1cc
.	.	2f#i\	.
=37	=37	=37	=37
0G	0d	0g	1.b-
.	.	.	4a/
.	.	.	4g/
1r	2d\	1r	2f/
.	2e\	.	2g/
=38	=38	=38	=38
0.r	2c\	0.r	2a/
.	1d	.	2.b-\
.	.	.	4a/
.	4c\	.	1g
.	4B-\	.	.
.	1A	.	.
.	.	.	2f#i/
=39	=39	=39	=39
2r	1G	2g\	1g
2G\	.	2g\	.
2G\	2r	2d\	2dd\
2D\	2d\	2.f\	2dd\
2.F\	2d\	.	2a/
.	.	4e\	.
.	2A/	2c\	[2cc\
4E\	.	.	.
=40	=40	=40	=40
2C/	2.c\	2g\	4cc\]
.	.	.	4b-\
2G\	.	2g\	2g/
.	4B-\	.	.
2G\	2G/	2d\	2dd\
2D\	2d\	2.f\	2dd\
2.F\	2d\	.	2a/
.	.	4e\	.
.	2A/	2c\	[2cc\
4E\	.	.	.
=41	=41	=41	=41
2C/	2.c\	1g	4cc\]
.	.	.	4b-\
2.G\	.	.	2g/
.	4B-\	.	.
.	2G/	2g\	2.dd\
4F\	.	.	.
1D	2.d\	2f\	.
.	.	.	4cc\
.	.	1f	4b-\
.	4c\	.	4a/
2D\	4B-\	.	[2ff\
.	4A/	.	.
=42	=42	=42	=42
[0.D	2.f\	2.a\	4ff\]
.	.	.	4ee\
.	.	.	4dd\
.	4e\	4g\	4cc\
.	4d\	4f\	4b-\
.	4c\	4e\	4a/
.	4B-\	2d\	1dd
.	4A/	.	.
.	2d\	1A	.
.	[2d\	.	4cc\
.	.	.	4b-\
=43	=43	=43	=43
0.D]	2d\]	1.f	4a/
.	.	.	4g/
.	4c\	.	2b-\
.	4B-\	.	.
.	4c\	.	4a/
.	4B-\	.	4g/
.	4A/	4e\	1g
.	4G/	4d\	.
.	1A	1d	.
.	.	.	2f#i/
=44	=44	=44	=44
0.GGl	0.Gl	0.dl	0.gl
!!LO:LB:i:g=z
=45||	=45||	=45||	=45||
*>B	*>B	*>B	*>B
*clefF4	*clefGv2	*clefGv2	*clefG2
*k[b-]	*k[b-]	*k[b-]	*k[b-]
*M2/1	*M2/1	*M2/1	*M2/1
*met(C|)	*met(C|)	*met(C|)	*met(C|)
!!section: Qui tollis
!!!OMD: Qui tollis
0r	[0G	1g	0r
.	.	2d\	.
.	.	[2g\	.
=46	=46	=46	=46
1r	0G]	2g\]	0r
.	.	4f\	.
.	.	4e\	.
1G	.	2d\	.
.	.	2e\	.
=47	=47	=47	=47
2D\	0d	2f\	0r
1G	.	1B-	.
4F\	.	4A/	.
4E\	.	4G/	.
=48	=48	=48	=48
2.D\	[0d	2.F/	1dd
4E\	.	4G/	.
1F	.	2A/	2a/
.	.	2F/	[2dd\
=49	=49	=49	=49
0D	0d]	0f	2dd\]
.	.	.	4cc\
.	.	.	4b-\
.	.	.	2a/
.	.	.	2b-\
=50	=50	=50	=50
[0C	[0e-i	1g	1cc
.	.	4g\	2g/
.	.	4f\	.
.	.	4e-i\	[2cc\
.	.	4d\	.
=51	=51	=51	=51
0C]	0e-]	1c	2cc\]
.	.	.	4b-\
.	.	.	4a/
.	.	1c	2g/
.	.	.	2a/
=52	=52	=52	=52
1G	[0d	0r	1b-
2D\	.	.	2f/
[2G\	.	.	[2b-\
=53	=53	=53	=53
2G\]	0d]	0r	2b-\]
4F\	.	.	4a/
4E\	.	.	4g/
2D\	.	.	2f/
2G\	.	.	2d/
=54	=54	=54	=54
2C/	0c	2r	2e/
2F\	.	2A/	2f/
2E\	.	2G/	2c/
2F\	.	2A/	2f/
=55	=55	=55	=55
2C/	0c	2G/	2e/
2F\	.	2A/	2f/
2E\	.	2G/	2g/
2F\	.	[2c\	[2a/
=56	=56	=56	=56
1G	0r	4c\]	4a/]
.	.	4B-\	4g/
.	.	4A/	1g
.	.	4G/	.
1D	.	1A	.
.	.	.	2f#i/
=57	=57	=57	=57
1r	[0d	0G	0g
1G	.	.	.
=58	=58	=58	=58
1.G	0d]	0r	0r
4F\	.	.	.
4E\	.	.	.
=59	=59	=59	=59
2F\	1d	0r	0r
2G\	.	.	.
2A\	1c	.	.
2F\	.	.	.
=60	=60	=60	=60
1A	2c\	0r	0r
.	1e	.	.
2G\	.	.	.
[2c\	4d\	.	.
.	4c\	.	.
=61	=61	=61	=61
2c\]	1d	0r	0r
2B-\	.	.	.
2A\	2r	.	.
[2G\	[2g\	.	.
=62	=62	=62	=62
4G\]	2g\]	0r	0r
8F\L	.	.	.
8E\J	.	.	.
2D\	2f\	.	.
2C/	2e\	.	.
[2G\	[2d\	.	.
=63	=63	=63	=63
2G\]	4d\]	0r	0r
.	8c\L	.	.
.	8B-\J	.	.
2F\	2A/	.	.
2E\	2G/	.	.
2D\	[2d\	.	.
=64	=64	=64	=64
1A	2d\]	0r	0r
.	2c\	.	.
2G\	2B-\	.	.
2F\	2A/	.	.
=65	=65	=65	=65
2D\	2d\	0r	0r
2F\	1d	.	.
1E	.	.	.
.	2c#i\	.	.
=66	=66	=66	=66
[0D	[0d	1f	0a
.	.	2f\	.
.	.	2f\	.
=67	=67	=67	=67
0D]	0d_	1f	1a
.	.	1f	1a
=68	=68	=68	=68
0G	0d_	1g	1b-
.	.	1g	2b-\
.	.	.	2b-\
=69	=69	=69	=69
0D	0d]	1f	1a
.	.	2r	1f
.	.	2d\	.
=70	=70	=70	=70
0r	0r	1f	2r
.	.	.	2a/
.	.	1f	1cc
=71	=71	=71	=71
0r	0r	2c\	1cc
.	.	2f\	.
.	.	2.f\	2a/
.	.	.	[2cc\
.	.	4e\	.
=72	=72	=72	=72
0r	0r	2c\	4cc\]
.	.	.	4b-\
.	.	2B-\	2g/
.	.	2f\	2f/
.	.	2e\	2cc\
=73	=73	=73	=73
0r	0r	2.g\	2b-\
.	.	.	2.dd\
.	.	4f\	.
.	.	2d\	.
.	.	.	4cc\
.	.	2c\	2a/
=74	=74	=74	=74
0r	0r	2g\	2g/
.	.	2f\	2dd\
.	.	1a	2cc\
.	.	.	[2ee\
=75	=75	=75	=75
0r	0r	4g\	4ee\]
.	.	4f\	4dd\
.	.	4e\	1dd
.	.	4d\	.
.	.	1e	.
.	.	.	2cc#i\
=76	=76	=76	=76
2r	[0G	1d	0dd
2B-\	.	.	.
1B-	.	2r	.
.	.	2B-\	.
=77	=77	=77	=77
2G\	0G]	1B-	0r
2.B-\	.	.	.
.	.	2G/	.
4A\	.	.	.
[2G\	.	[2B-\	.
=78	=78	=78	=78
2G\]	[0d	4B-\]	1r
.	.	4A/	.
4F\	.	1G	.
4E\	.	.	.
1D	.	.	2r
.	.	2F#i/	2a/
=79	=79	=79	=79
2r	0d]	0G	1b-
2.B-\	.	.	.
.	.	.	2g/
4A\	.	.	.
[2G\	.	.	[2b-\
=80	=80	=80	=80
2G\]	[0d	1G	4b-\]
.	.	.	4a/
4F\	.	.	1g
4E\	.	.	.
1D	.	1A	.
.	.	.	2f/
=81	=81	=81	=81
0G	0d]	2G/	2g/
.	.	1c	4f/
.	.	.	4e/
.	.	.	1d
.	.	2Bni\	.
=82	=82	=82	=82
0C	[0e-i	1c	0c
.	.	[1G	.
=83	=83	=83	=83
1C	0e-]	1G]	1c
1C	.	1G	1c
=84	=84	=84	=84
0D	[0d	0F	0f
=85	=85	=85	=85
0BB-	0d]	1.B-	0f
.	.	4A/	.
.	.	4G/	.
=86	=86	=86	=86
2.C/	1c	1G	1e
4D\	.	.	.
2E\	1r	1r	2e/
[2F\	.	.	[2d/
=87	=87	=87	=87
4F\]	0r	0r	2d/]
4C/	.	.	.
2E\	.	.	1c
1D	.	.	.
.	.	.	2Bni/
=88	=88	=88	=88
[0C	[0e-i	2r	1c
.	.	2.G/	.
.	.	.	2r
.	.	8A/L	.
.	.	8B-/J	.
.	.	[2c\	[2g/
=89	=89	=89	=89
0C]	0e-]	2c\]	4g/]
.	.	.	8a/L
.	.	.	8b-/J
.	.	2G/	2.cc\
.	.	1c	.
.	.	.	4b-\
.	.	.	4a/
.	.	.	4g/
=90	=90	=90	=90
[0D	[0d	2r	1f
.	.	2.A/	.
.	.	.	2r
.	.	8B-\L	.
.	.	8c\J	.
.	.	[2d\	[2a/
=91	=91	=91	=91
1D]	0d]	2d\]	4a/]
.	.	.	8b-\L
.	.	.	8cc\J
.	.	2A/	2.dd\
1BB-	.	2B-\	.
.	.	.	4cc\
.	.	2G/	4b-\
.	.	.	4a/
=92	=92	=92	=92
1C	1e-i	1G	2g/
.	.	.	2cc\
2G\	2d\	1r	2b-\
2A\	[2c\	.	[2a/
=93	=93	=93	=93
2F\	4c\]	0r	2a/]
.	4B-\	.	.
2G\	4A/	.	2.g/
.	4G/	.	.
1D	1A	.	.
.	.	.	4f#i/
.	.	.	2f#i/
=94	=94	=94	=94
1r	0G	1d	0g
1G	.	2d\	.
.	.	[2e\	.
=95	=95	=95	=95
2G\	0r	2e\]	0r
1A	.	2e\	.
.	.	2.f\	.
2A\	.	.	.
.	.	4e\	.
=96	=96	=96	=96
2B-\	0r	2d\	0r
2A\	.	2c\	.
1F	.	2c\	.
.	.	[2f\	.
=97	=97	=97	=97
2.B-\	0r	4f\]	0r
.	.	4e\	.
.	.	4d\	.
4A\	.	4c\	.
4G\	.	2d\	.
4F\	.	.	.
[2G\	.	[2e\	.
=98	=98	=98	=98
4G\]	0G	2e\]	1r
4F\	.	.	.
4E\	.	1d	.
4D\	.	.	.
1E	.	.	1g
.	.	2c#i\	.
=99	=99	=99	=99
[0D	0A	[0d	1f
.	.	.	1f
=100	=100	=100	=100
0D]	1A	0d]	0f
.	1A	.	.
=101	=101	=101	=101
0r	2.c\	0r	2.e/
.	4d\	.	4f/
.	2e\	.	2g/
.	[2f\	.	[2a/
=102	=102	=102	=102
0r	4f\]	1r	2a/]
.	4e\	.	.
.	1d	.	4g/
.	.	.	4f/
.	.	1g	1e
.	2c#i\	.	.
=103	=103	=103	=103
0r	[0d	1f	1d
.	.	1f	2r
.	.	.	2dd\
=104	=104	=104	=104
0r	0d]	0f	1dd
.	.	.	1dd
=105	=105	=105	=105
0r	0r	2.e\	2.cc\
.	.	4f\	4dd\
.	.	2g\	2ee\
.	.	[2a\	[2ff\
=106	=106	=106	=106
0r	0r	2a\]	4ff\]
.	.	.	4ee\
.	.	4g\	1dd
.	.	4f\	.
.	.	1e	.
.	.	.	2cc#i\
=107	=107	=107	=107
0D	[0f	0d	1dd
.	.	.	2r
.	.	.	2dd\
=108	=108	=108	=108
1D	0f]	1r	2dd\
.	.	.	1ff
1D	.	1a	.
.	.	.	4ee\
.	.	.	4dd\
=109	=109	=109	=109
1A	[0e	2a\	1cc
.	.	1a	.
[1A	.	.	1cc
.	.	2a\	.
=110	=110	=110	=110
1A]	0e]	2a\	2cc\
.	.	2a\	2cc\
1c	.	1g	1cc
=111	=111	=111	=111
1G	[0d	2r	1b-
.	.	2G/	.
2F\	.	2A/	2a/
[2G\	.	2G/	[2b-\
=112	=112	=112	=112
2G\]	0d]	2B-\	2b-\]
2A\	.	2c\	1a
1B-	.	1d	.
.	.	.	2g/
=113	=113	=113	=113
[0A	[0c	2r	1a
.	.	2e\	.
.	.	2f\	2r
.	.	2f\	2a/
=114	=114	=114	=114
2A\]	0c]	1e	2cc\
2A\	.	.	2cc\
2A\	.	1f	2cc\
2A\	.	.	2cc\
=115	=115	=115	=115
1G	0d	1g	1b-
1B-	.	1f	1b-
=116	=116	=116	=116
1F	1.c	2f\	1a
.	.	2.f\	.
2F\	.	.	2a/
.	.	4e\	.
[2G\	2B-\	[2d\	[2b-\
=117	=117	=117	=117
4G\]	1G	2d\]	4b-\]
4F\	.	.	4a/
2E\	.	2c\	1g
1D	1A	1d	.
.	.	.	2f#i/
=118	=118	=118	=118
1G	0G	2r	1g
.	.	1g	.
2r	.	.	2r
[2B-\	.	2f\	[2dd\
=119	=119	=119	=119
2B-\]	0r	2e\	2dd\]
2A\	.	2c\	2cc\
2G\	.	1d	2b-\
2F\	.	.	2a/
=120	=120	=120	=120
1.A	2r	0c	1.cc
.	1e	.	.
2B-\	2d\	.	2b-\
=121	=121	=121	=121
2c\	2c\	0r	2a/
2d\	2B-\	.	2g/
1G	1d	.	1b-
=122	=122	=122	=122
1A	1.c	2r	1.a
.	.	1f	.
2F\	.	.	.
2G\	2B-\	2e\	2g/
=123	=123	=123	=123
2D\	2A/	2d\	2f/
2.E\	2G/	2c\	2e/
.	1B-	1e	[1g
4F\	.	.	.
2G\	.	.	.
=124	=124	=124	=124
0D	0A	0d	1g]
.	.	.	1f#i
=125	=125	=125	=125
[0Gl	0G	[0d	[0gl
=126	=126	=126	=126
0G_	[0Gl	0d]	0g_
=127	=127	=127	=127
0G]	0G]	0dl	0g]
==	==	==	==
*-	*-	*-	*-
!!!RDF**kern: l=long note in original notation
!!!RDF**kern: i=editorial accidental
!!!ENC:	Chris Gage 05-11-2013
!!!END:	2013/08/01/
!!!EED:	Jesse Rodin
!!!EEV:	2013/08/02/
!!!ONB:	Translated from MusicXML and edited on 2013/08/02/ by Craig Sapp
!!muse2ps: T^@{OPR}^u^@{ONM}{. }@{OTL}^C^@{COM}^i2I150v85,85,85,150Q16c80
